X: 41855
T: Virginia, The
R: reel
M: 4/4
K: Dmajor
DBBA ~B3A|BAdB AFEF|DF~F2 ~A3B|AFdB AFEF|
DBBA ~B3A|BAdB ABde|~f3e defe|dBAF BE~E2:|
|:defe d3A|BAFA BAFA|defe defg|afbf afeg|
fgfe dedB|AF~F2 ABde|~f3e defe|dBAF BE~E2:|

